;FLAVOR:Marlin
;TIME:5849
;Filament used: 5.60005m
;Layer height: 0.2
;MINX:56.854
;MINY:41.98
;MINZ:0.2
;MAXX:163.147
;MAXY:177.616
;MAXZ:10.2
;Generated with Cura_SteamEngine 4.13.0
M140 S56
M105
M190 S56
M104 S190
M105
M109 S190
M82 ;absolute extrusion mode
G21 ;metric values
G90 ;absolute positioning
M82 ;set extruder to absolute mode
M107 ;start with the fan off
G28 X0 Y0 ;move X/Y to min endstops
G28 Z0 ;move Z to min endstops
G1 Z15.0 F9000 ;move the platform down 15mm
G92 E0 ;zero the extruded length
G1 F200 E3 ;extrude 3mm of feed stock
G92 E0 ;zero the extruded length again
G1 F9000
;Put printing message on LCD screen
M117 Printing...
G92 E0
G92 E0
G1 F4200 E-7
;LAYER_COUNT:51
;LAYER:0
M106 S255
G1 F600 Z1.2
G0 F2400 X90.638 Y53.171 Z1.2
;TYPE:SKIRT
G1 F600 Z0.2
G1 F4200 E0
G1 F3600 X90.719 Y53.036 E0.00524
G1 X91.356 Y52.011 E0.04538
G1 X91.65 Y51.568 E0.06306
G1 X91.964 Y51.125 E0.08112
G1 X92.411 Y50.543 E0.10553
G1 X92.513 Y50.417 E0.11092
G1 X93.269 Y49.516 E0.15004
G1 X93.645 Y49.093 E0.16886
G1 X94.013 Y48.706 E0.18662
G1 X94.533 Y48.197 E0.21083
G1 X94.657 Y48.082 E0.21645
G1 X95.534 Y47.296 E0.25562
G1 X95.96 Y46.937 E0.27415
G1 X96.367 Y46.614 E0.29143
G1 X96.95 Y46.185 E0.31551
G1 X97.089 Y46.089 E0.32112
G1 X98.097 Y45.416 E0.36144
G1 X98.438 Y45.206 E0.37476
G1 X99.45 Y44.629 E0.4135
G1 X99.963 Y44.356 E0.43283
G1 X100.522 Y44.084 E0.45351
G1 X101.156 Y43.805 E0.47655
G1 X101.288 Y43.75 E0.4813
G1 X102.32 Y43.34 E0.51824
G1 X102.779 Y43.178 E0.53442
G1 X103.831 Y42.848 E0.5711
G1 X104.241 Y42.735 E0.58524
G1 X105.456 Y42.446 E0.62678
G1 X105.79 Y42.379 E0.63811
G1 X106.955 Y42.188 E0.67737
G1 X107.53 Y42.116 E0.69665
G1 X108.461 Y42.031 E0.72774
G1 X108.992 Y42.002 E0.74543
G1 X110.092 Y41.981 E0.78202
G1 X110.25 Y41.98 E0.78728
G1 X110.844 Y41.991 E0.80704
G1 X111.439 Y42.022 E0.82685
G1 X111.97 Y42.066 E0.84458
G1 X112.147 Y42.084 E0.85049
G1 X113.229 Y42.214 E0.88674
G1 X113.687 Y42.287 E0.90217
G1 X114.901 Y42.525 E0.94331
G1 X115.226 Y42.6 E0.95441
G1 X116.359 Y42.905 E0.99343
G1 X116.93 Y43.076 E1.01326
G1 X117.476 Y43.262 E1.03244
G1 X118.107 Y43.501 E1.05488
G1 X118.267 Y43.566 E1.06063
G1 X119.31 Y44.013 E1.09837
G1 X119.861 Y44.27 E1.11859
G1 X120.351 Y44.516 E1.13683
G1 X120.929 Y44.833 E1.15875
G1 X121.088 Y44.926 E1.16488
G1 X122.105 Y45.545 E1.20448
G1 X122.441 Y45.766 E1.21785
G1 X123.406 Y46.45 E1.25719
G1 X123.852 Y46.787 E1.27579
G1 X124.295 Y47.145 E1.29473
G1 X124.82 Y47.602 E1.31788
G1 X124.932 Y47.704 E1.32292
G1 X125.797 Y48.523 E1.36254
G1 X126.203 Y48.933 E1.38173
G1 X126.598 Y49.357 E1.401
G1 X127.039 Y49.87 E1.4235
G1 X127.136 Y49.988 E1.42859
G1 X127.855 Y50.894 E1.46706
G1 X128.21 Y51.37 E1.48681
G1 X128.551 Y51.859 E1.50663
G1 X128.681 Y52.06 E1.51459
G1 X129.092 Y52.708 E1.54012
G1 X129.35 Y53.142 E1.55691
G1 X129.515 Y53.438 E1.56818
G1 X129.866 Y54.09 E1.59281
G1 X130.099 Y54.554 E1.61008
G1 X130.397 Y55.206 E1.63392
G1 X130.457 Y55.346 E1.63899
G1 X131.392 Y57.641 E1.72141
G1 X131.831 Y58.741 E1.7608
G1 X132.91 Y61.24 E1.85134
G1 X134.043 Y63.668 E1.94045
G1 X135.252 Y66.084 E2.03031
G1 X136.52 Y68.446 E2.11947
G1 X137.861 Y70.784 E2.20912
G1 X139.271 Y73.086 E2.29891
G1 X140.722 Y75.314 E2.38734
G1 X142.282 Y77.564 E2.4784
G1 X143.865 Y79.719 E2.56734
G1 X145.515 Y81.834 E2.65656
G1 X147.229 Y83.908 E2.74605
G1 X149.026 Y85.96 E2.83677
G1 X150.835 Y87.914 E2.92533
G1 X152.718 Y89.836 E3.01482
G1 X154.658 Y91.704 E3.1044
G1 X154.827 Y91.859 E3.11203
G1 X156.115 Y93.064 E3.17069
G1 X156.316 Y93.26 E3.18003
G1 X156.763 Y93.706 E3.20103
G1 X157.28 Y94.235 E3.22563
G1 X157.627 Y94.621 E3.2429
G1 X157.872 Y94.912 E3.25555
G1 X158.296 Y95.432 E3.27786
G1 X158.735 Y95.984 E3.30132
G1 X159.097 Y96.486 E3.32191
G1 X159.175 Y96.6 E3.3265
G1 X159.627 Y97.285 E3.3538
G1 X159.986 Y97.845 E3.37592
G1 X160.249 Y98.295 E3.39326
G1 X160.329 Y98.442 E3.39882
G1 X160.757 Y99.262 E3.42959
G1 X161.063 Y99.871 E3.45226
G1 X161.312 Y100.426 E3.47249
G1 X161.37 Y100.564 E3.47747
G1 X161.674 Y101.331 E3.50491
G1 X161.907 Y101.939 E3.52657
G1 X162.088 Y102.483 E3.54563
G1 X162.366 Y103.453 E3.5792
G1 X162.554 Y104.158 E3.60346
G1 X162.676 Y104.705 E3.6221
G1 X162.704 Y104.854 E3.62715
G1 X162.862 Y105.755 E3.65757
G1 X162.97 Y106.501 E3.68264
G1 X163.086 Y107.762 E3.72476
G1 X163.098 Y107.925 E3.7302
G1 X163.138 Y108.617 E3.75325
G1 X163.147 Y109.155 E3.77115
G1 X163.141 Y109.516 E3.78315
G1 X163.119 Y110.18 E3.80525
G1 X163.086 Y110.896 E3.82909
G1 X163.028 Y111.529 E3.85023
G1 X162.92 Y112.35 E3.87777
G1 X162.804 Y113.136 E3.9042
G1 X162.709 Y113.634 E3.92106
G1 X162.676 Y113.783 E3.92614
G1 X162.461 Y114.682 E3.95688
G1 X162.286 Y115.366 E3.98037
G1 X162.13 Y115.884 E3.99836
G1 X162.082 Y116.029 E4.00344
G1 X161.792 Y116.853 E4.03249
G1 X161.554 Y117.499 E4.05539
G1 X161.344 Y118.002 E4.07352
G1 X161.209 Y118.297 E4.08431
G1 X160.895 Y118.961 E4.10874
G1 X160.601 Y119.56 E4.13093
G1 X160.285 Y120.136 E4.15278
G1 X159.871 Y120.824 E4.17949
G1 X159.451 Y121.5 E4.20596
G1 X159.146 Y121.946 E4.22393
G1 X158.962 Y122.197 E4.23428
G1 X158.545 Y122.751 E4.25735
G1 X158.113 Y123.31 E4.28084
G1 X157.756 Y123.733 E4.29925
G1 X157.107 Y124.437 E4.3311
G1 X156.598 Y124.973 E4.35568
G1 X156.4 Y125.169 E4.36495
G1 X155.427 Y126.081 E4.40931
G1 X155.348 Y126.169 E4.41324
G1 X154.357 Y127.095 E4.45835
G1 X152.479 Y128.953 E4.54622
G1 X150.601 Y130.921 E4.63669
G1 X148.773 Y132.946 E4.72743
G1 X147.058 Y134.96 E4.81541
G1 X145.356 Y137.074 E4.90568
G1 X143.745 Y139.198 E4.99434
G1 X142.149 Y141.43 E5.08561
G1 X140.661 Y143.64 E5.17422
G1 X139.234 Y145.896 E5.26301
G1 X137.847 Y148.229 E5.35328
G1 X136.539 Y150.581 E5.44279
G1 X135.293 Y152.978 E5.53264
G1 X134.131 Y155.376 E5.62127
G1 X133.018 Y157.851 E5.71153
G1 X131.974 Y160.352 E5.80167
G1 X131.156 Y162.53 E5.87905
G1 X130.931 Y163.101 E5.89947
G1 X130.605 Y163.925 E5.92894
G1 X130.306 Y164.603 E5.95358
G1 X130.076 Y165.077 E5.97111
G1 X129.505 Y166.169 E6.01209
G1 X129.226 Y166.665 E6.03102
G1 X128.919 Y167.17 E6.05068
G1 X128.749 Y167.433 E6.06109
G1 X128.375 Y167.994 E6.08352
G1 X128.032 Y168.476 E6.10319
G1 X127.856 Y168.71 E6.11293
G1 X127.353 Y169.356 E6.14016
G1 X126.914 Y169.879 E6.16288
G1 X126.493 Y170.345 E6.18376
G1 X125.665 Y171.204 E6.22345
G1 X125.253 Y171.606 E6.24259
G1 X124.779 Y172.038 E6.26392
G1 X124.312 Y172.431 E6.28422
G1 X124.187 Y172.533 E6.28959
G1 X123.246 Y173.266 E6.32926
G1 X122.777 Y173.608 E6.34857
G1 X122.273 Y173.952 E6.36886
G1 X122.054 Y174.091 E6.37749
G1 X121.472 Y174.452 E6.40027
G1 X120.947 Y174.757 E6.42046
G1 X120.677 Y174.904 E6.43069
G1 X120.061 Y175.228 E6.45384
G1 X119.584 Y175.464 E6.47154
G1 X118.858 Y175.787 E6.49797
G1 X118.715 Y175.846 E6.50311
G1 X117.708 Y176.247 E6.53916
G1 X117.248 Y176.411 E6.55541
G1 X116.193 Y176.742 E6.59218
G1 X115.601 Y176.908 E6.61263
G1 X114.983 Y177.061 E6.63381
G1 X114.77 Y177.107 E6.64105
G1 X114.025 Y177.257 E6.66633
G1 X113.453 Y177.355 E6.68563
G1 X112.814 Y177.441 E6.70708
G1 X112.652 Y177.459 E6.7125
G1 X111.477 Y177.569 E6.75175
G1 X110.991 Y177.596 E6.76794
G1 X109.923 Y177.616 E6.80347
G1 X109.317 Y177.611 E6.82362
G1 X108.695 Y177.584 E6.84433
G1 X108.406 Y177.564 E6.85397
G1 X107.726 Y177.506 E6.87667
G1 X107.227 Y177.45 E6.89337
G1 X106.846 Y177.397 E6.90616
G1 X106.034 Y177.267 E6.93351
G1 X105.359 Y177.134 E6.95639
G1 X104.607 Y176.962 E6.98205
G1 X104.034 Y176.812 E7.00175
G1 X103.873 Y176.766 E7.00732
G1 X103.072 Y176.521 E7.03518
G1 X102.58 Y176.356 E7.05244
G1 X101.897 Y176.098 E7.07672
G1 X101.74 Y176.033 E7.08238
G1 X100.638 Y175.559 E7.12227
G1 X100.118 Y175.317 E7.14135
G1 X99.647 Y175.079 E7.1589
G1 X99.352 Y174.922 E7.17002
G1 X98.725 Y174.569 E7.19395
G1 X98.286 Y174.307 E7.21095
G1 X97.961 Y174.102 E7.22373
G1 X97.391 Y173.725 E7.24646
G1 X96.912 Y173.388 E7.26594
G1 X96.375 Y172.983 E7.28831
G1 X96.235 Y172.871 E7.29428
G1 X95.314 Y172.111 E7.33399
G1 X94.894 Y171.742 E7.35259
G1 X94.436 Y171.312 E7.37348
G1 X94.001 Y170.87 E7.39411
G1 X93.89 Y170.752 E7.3995
G1 X93.072 Y169.853 E7.43992
G1 X92.688 Y169.405 E7.45955
G1 X92.309 Y168.93 E7.47976
G1 X91.76 Y168.186 E7.51051
G1 X91.45 Y167.738 E7.52863
G1 X91.246 Y167.426 E7.54103
G1 X90.895 Y166.868 E7.56296
G1 X90.626 Y166.413 E7.58054
G1 X90.263 Y165.745 E7.60582
G1 X90.185 Y165.593 E7.61151
G1 X89.664 Y164.524 E7.65106
G1 X89.499 Y164.154 E7.66453
G1 X88.976 Y162.856 E7.71108
G1 X88.861 Y162.566 E7.72145
G1 X88.33 Y161.142 E7.772
G1 X87.32 Y158.651 E7.8614
G1 X86.237 Y156.182 E7.95108
G1 X85.096 Y153.77 E8.03982
G1 X83.852 Y151.321 E8.13118
G1 X82.592 Y149.005 E8.21888
G1 X81.22 Y146.644 E8.3097
G1 X79.805 Y144.362 E8.39901
G1 X78.318 Y142.107 E8.48885
G1 X76.787 Y139.925 E8.5775
G1 X75.171 Y137.751 E8.6676
G1 X73.509 Y135.644 E8.75685
G1 X71.768 Y133.562 E8.84712
G1 X69.979 Y131.542 E8.93687
G1 X68.175 Y129.616 E9.02464
G1 X66.263 Y127.689 E9.11493
G1 X64.1 Y125.65 E9.2138
G1 X63.577 Y125.15 E9.23786
G1 X63.091 Y124.652 E9.26101
G1 X62.599 Y124.121 E9.28508
G1 X62.122 Y123.591 E9.3088
G1 X61.783 Y123.18 E9.32652
G1 X61.547 Y122.874 E9.33937
G1 X61.176 Y122.379 E9.35995
G1 X60.747 Y121.791 E9.38415
G1 X60.436 Y121.326 E9.40276
G1 X60.352 Y121.192 E9.40802
G1 X59.901 Y120.444 E9.43707
G1 X59.561 Y119.861 E9.45952
G1 X59.311 Y119.391 E9.47722
G1 X59.241 Y119.248 E9.48252
G1 X58.871 Y118.465 E9.51132
G1 X58.573 Y117.81 E9.53526
G1 X58.368 Y117.302 E9.55348
G1 X58.031 Y116.355 E9.58691
G1 X57.852 Y115.817 E9.60577
G1 X57.768 Y115.532 E9.61565
G1 X57.453 Y114.33 E9.65698
G1 X57.301 Y113.663 E9.67973
G1 X57.244 Y113.361 E9.68996
G1 X57.05 Y112.112 E9.732
G1 X57.027 Y111.949 E9.73747
G1 X56.942 Y111.243 E9.76112
G1 X56.901 Y110.689 E9.7796
G1 X56.886 Y110.364 E9.79042
G1 X56.867 Y109.716 E9.81198
G1 X56.854 Y108.984 E9.83633
G1 X56.866 Y108.481 E9.85307
G1 X56.89 Y108.068 E9.86683
G1 X56.937 Y107.432 E9.88804
G1 X57 Y106.704 E9.91234
G1 X57.063 Y106.205 E9.92907
G1 X57.087 Y106.056 E9.93409
G1 X57.243 Y105.16 E9.96434
G1 X57.37 Y104.491 E9.98699
G1 X57.511 Y103.895 E10.00736
G1 X57.548 Y103.757 E10.01211
G1 X57.783 Y102.929 E10.04074
G1 X57.978 Y102.278 E10.06334
G1 X58.155 Y101.766 E10.08136
G1 X58.207 Y101.63 E10.0862
G1 X58.526 Y100.826 E10.11497
G1 X58.794 Y100.181 E10.1382
G1 X59.042 Y99.651 E10.15766
G1 X59.107 Y99.522 E10.16247
G1 X59.5 Y98.767 E10.19078
G1 X59.817 Y98.179 E10.21299
G1 X60.096 Y97.712 E10.23109
G1 X60.282 Y97.423 E10.24252
G1 X60.657 Y96.855 E10.26516
G1 X61.065 Y96.258 E10.28921
G1 X61.386 Y95.826 E10.30711
G1 X61.581 Y95.581 E10.31752
G1 X62.044 Y95.016 E10.34182
G1 X62.482 Y94.498 E10.36438
G1 X62.91 Y94.034 E10.38538
G1 X63.508 Y93.434 E10.41355
G1 X64.172 Y92.795 E10.4442
G1 X64.463 Y92.529 E10.45731
G1 X66.408 Y90.699 E10.54614
G1 X68.355 Y88.762 E10.63748
G1 X70.191 Y86.828 E10.72618
G1 X71.99 Y84.823 E10.81577
G1 X73.716 Y82.788 E10.90452
G1 X75.408 Y80.674 E10.99458
G1 X77.028 Y78.527 E11.08404
G1 X78.606 Y76.307 E11.17463
G1 X80.077 Y74.109 E11.2626
G1 X81.524 Y71.809 E11.35298
G1 X82.881 Y69.51 E11.44177
G1 X84.214 Y67.103 E11.53328
G1 X85.413 Y64.78 E11.62023
G1 X86.605 Y62.301 E11.71172
G1 X87.695 Y59.862 E11.80057
G1 X88.864 Y56.988 E11.90377
G1 X88.91 Y56.893 E11.90728
G1 X89.257 Y56.021 E11.93849
G1 X89.324 Y55.861 E11.94426
G1 X89.804 Y54.772 E11.98384
G1 X90.047 Y54.261 E12.00266
G1 X90.322 Y53.731 E12.02252
G1 X90.638 Y53.171 E12.04391
G0 F2400 X90.985 Y53.371
G1 F3600 X91.059 Y53.248 E12.04868
G1 X91.696 Y52.223 E12.08882
G1 X91.982 Y51.791 E12.10605
G1 X92.29 Y51.358 E12.12373
G1 X92.726 Y50.79 E12.14754
G1 X92.819 Y50.674 E12.15249
G1 X93.575 Y49.773 E12.19161
G1 X93.942 Y49.361 E12.20996
G1 X94.301 Y48.983 E12.2273
G1 X94.811 Y48.485 E12.25101
G1 X94.924 Y48.379 E12.25616
G1 X95.801 Y47.593 E12.29533
G1 X96.216 Y47.245 E12.31334
G1 X96.615 Y46.928 E12.33029
G1 X97.183 Y46.51 E12.35375
G1 X97.311 Y46.422 E12.35891
G1 X98.319 Y45.749 E12.39923
G1 X98.636 Y45.554 E12.41161
G1 X99.648 Y44.977 E12.45035
G1 X100.149 Y44.711 E12.46922
G1 X100.687 Y44.448 E12.48914
G1 X101.315 Y44.172 E12.51195
G1 X101.435 Y44.122 E12.51627
G1 X102.467 Y43.712 E12.55321
G1 X102.899 Y43.56 E12.56844
G1 X103.951 Y43.23 E12.60511
G1 X104.334 Y43.124 E12.61833
G1 X105.549 Y42.835 E12.65987
G1 X105.855 Y42.774 E12.67024
G1 X107.02 Y42.583 E12.70951
G1 X107.566 Y42.514 E12.72781
G1 X108.497 Y42.429 E12.75891
G1 X109 Y42.402 E12.77566
G1 X110.1 Y42.381 E12.81226
G1 X110.245 Y42.38 E12.81708
G1 X110.825 Y42.391 E12.83637
G1 X111.406 Y42.421 E12.85572
G1 X111.937 Y42.465 E12.87344
G1 X112.099 Y42.481 E12.87886
G1 X113.181 Y42.611 E12.9151
G1 X113.61 Y42.679 E12.92955
G1 X114.824 Y42.917 E12.9707
G1 X115.122 Y42.986 E12.98087
G1 X116.255 Y43.291 E13.0199
G1 X116.814 Y43.459 E13.03931
G1 X117.338 Y43.637 E13.05772
G1 X117.962 Y43.874 E13.07992
G1 X118.109 Y43.934 E13.0852
G1 X119.152 Y44.381 E13.12294
G1 X119.691 Y44.631 E13.1427
G1 X120.162 Y44.868 E13.16024
G1 X120.734 Y45.183 E13.18196
G1 X120.88 Y45.267 E13.18756
G1 X121.897 Y45.886 E13.22716
G1 X122.209 Y46.092 E13.23959
G1 X123.174 Y46.776 E13.27894
G1 X123.609 Y47.105 E13.29708
G1 X124.037 Y47.45 E13.31536
G1 X124.554 Y47.901 E13.33818
G1 X124.657 Y47.995 E13.34282
G1 X125.522 Y48.814 E13.38244
G1 X125.917 Y49.212 E13.40109
G1 X126.297 Y49.621 E13.41966
G1 X126.734 Y50.129 E13.44194
G1 X126.823 Y50.237 E13.4466
G1 X127.542 Y51.143 E13.48507
G1 X127.888 Y51.608 E13.50434
G1 X128.216 Y52.078 E13.52341
G1 X128.344 Y52.274 E13.53119
G1 X128.755 Y52.922 E13.55672
G1 X129.055 Y53.432 E13.5764
G1 X129.163 Y53.627 E13.58381
G1 X129.514 Y54.279 E13.60844
G1 X129.741 Y54.731 E13.62526
G1 X130.032 Y55.369 E13.64858
G1 X130.087 Y55.497 E13.65322
G1 X131.021 Y57.789 E13.73554
G1 X131.481 Y58.943 E13.77686
G1 X132.525 Y61.36 E13.86442
G1 X133.681 Y63.837 E13.95534
G1 X134.9 Y66.273 E14.04594
G1 X136.179 Y68.655 E14.13586
G1 X137.516 Y70.986 E14.22524
G1 X138.928 Y73.291 E14.31515
G1 X140.402 Y75.554 E14.40497
G1 X141.947 Y77.783 E14.49518
G1 X143.543 Y79.956 E14.58485
G1 X145.224 Y82.111 E14.67575
G1 X146.918 Y84.16 E14.76418
G1 X148.715 Y86.212 E14.8549
G1 X150.557 Y88.202 E14.94509
G1 X152.406 Y90.089 E15.03296
G1 X154.394 Y92.005 E15.12479
G1 X154.554 Y92.151 E15.13199
G1 X155.836 Y93.35 E15.19038
G1 X156.433 Y93.942 E15.21834
G1 X156.994 Y94.515 E15.24501
G1 X157.393 Y94.962 E15.26494
G1 X157.562 Y95.165 E15.27373
G1 X157.983 Y95.681 E15.29588
G1 X158.422 Y96.233 E15.31933
G1 X158.77 Y96.715 E15.33911
G1 X158.842 Y96.821 E15.34337
G1 X159.29 Y97.501 E15.37045
G1 X159.649 Y98.061 E15.39258
G1 X159.901 Y98.493 E15.40921
G1 X159.975 Y98.627 E15.4143
G1 X160.4 Y99.442 E15.44487
G1 X160.706 Y100.051 E15.46754
G1 X160.945 Y100.585 E15.487
G1 X160.998 Y100.712 E15.49158
G1 X161.301 Y101.474 E15.51885
G1 X161.534 Y102.082 E15.54051
G1 X161.706 Y102.604 E15.55879
G1 X161.958 Y103.48 E15.58911
G1 X162.167 Y104.261 E15.616
G1 X162.284 Y104.787 E15.63392
G1 X162.31 Y104.923 E15.63852
G1 X162.467 Y105.818 E15.66875
G1 X162.572 Y106.538 E15.69295
G1 X162.688 Y107.799 E15.73507
G1 X162.699 Y107.948 E15.74003
G1 X162.739 Y108.64 E15.76309
G1 X162.747 Y109.156 E15.78025
G1 X162.741 Y109.503 E15.7918
G1 X162.719 Y110.162 E15.81373
G1 X162.686 Y110.878 E15.83757
G1 X162.63 Y111.487 E15.85791
G1 X162.616 Y111.607 E15.86193
G1 X162.514 Y112.363 E15.8873
G1 X162.408 Y113.077 E15.91131
G1 X162.287 Y113.691 E15.93212
G1 X162.074 Y114.583 E15.96262
G1 X161.899 Y115.267 E15.98611
G1 X161.749 Y115.763 E16.00334
G1 X161.705 Y115.896 E16.008
G1 X161.417 Y116.715 E16.03688
G1 X161.179 Y117.361 E16.05977
G1 X160.977 Y117.842 E16.07712
G1 X160.847 Y118.127 E16.08754
G1 X160.536 Y118.785 E16.11175
G1 X160.242 Y119.384 E16.13394
G1 X159.937 Y119.939 E16.15501
G1 X159.5 Y120.663 E16.18313
G1 X159.111 Y121.289 E16.20765
G1 X158.82 Y121.714 E16.22478
G1 X158.642 Y121.956 E16.23477
G1 X158.229 Y122.507 E16.25767
G1 X157.797 Y123.066 E16.28117
G1 X157.454 Y123.47 E16.2988
G1 X157.368 Y123.566 E16.30308
G1 X156.772 Y124.21 E16.33227
G1 X156.308 Y124.698 E16.35467
G1 X156.127 Y124.877 E16.36313
G1 X155.191 Y125.753 E16.40577
